X:1
T:The Single Girl
M:4/4
L:1/8
K:G
 d2 de G2 BB| d2 de A4| d2 de G2 DG| BA GE G2 G2| BA GE DE GA| G2 B2 G2 GA|\
 Bd BA GE DG| G6 z2|

